!!!COM:	la Rue, Pierre de
!!!CDT:	~1452///-1518/11/20
!!!OTL:	Tous nobles coeurs
!!!AGN:	Song; Chanson
!!!SCT:	Rue3023
!!!SCA:	Rue3023
!!!voices:	3
**kern	**kern	**kern
*staff3	*staff2	*staff1
*Ivox	*Ivox	*Ivox
*I"Baripsaltes	*I"Tenor	*I"Discantus
*I'Bp	*I'T	*I'D
*clefF4	*clefG2	*clefG2
*k[]	*k[]	*k[]
*M2/1	*M2/1	*M2/1
*met(C|)	*met(C|)	*met(C|)
=1-	=1-	=1-
1r	0r	0r
2r	.	.
2d\	.	.
=2	=2	=2
1d	0r	0r
1c	.	.
=3	=3	=3
2d\	2r	0r
2A\	2a/	.
2c\	1a	.
2d\	.	.
=4	=4	=4
1B	1g	1r
2A\	2a/	2r
[2B-\	2d/	2dd\
=5	=5	=5
2B-\]	2f/	1dd
4A\	2g/	.
4G\	.	.
1A	1e	1cc#i
=6	=6	=6
0D	1d	1dd
.	2r	2r
.	2d/	2ff\
=7	=7	=7
2r	2.f/	0ff
2D\	.	.
.	4g/	.
2F\	4a/	.
.	4f/	.
2G\	[2b-i\	.
=8	=8	=8
1A	2b-\]	1ee
.	1a	.
1B-i	.	1dd
.	2g/	.
=9	=9	=9
0A	1a	1cc
.	2r	2r
.	2a/	2a/
=10	=10	=10
2r	0a	2.cc\
2A\	.	.
.	.	4dd\
2c\	.	4ee\
.	.	4cc\
2d\	.	[2ff\
=11	=11	=11
2e\	1g	2ff\]
2c\	.	1ee
1d	1f	.
.	.	2dd\
=12	=12	=12
0A	1e	1ee
.	2r	2r
.	[2f/	[2a/
=13	=13	=13
1F	2f/]	4a/]
.	.	4b\
.	4e/	2.cc\
.	4d/	.
2r	2e/	.
.	.	4b\
2F\	2c/	4a/
.	.	4g/
=14	=14	=14
1F	2d/	2f/
.	1f	2a/
1c	.	1g
.	2e/	.
=15	=15	=15
[0F	1f	1f
.	2r	2r
.	[2a/	[2ff\
=16	=16	=16
1F]	4a/]	2ff\]
.	4b\	.
.	2.cc\	4ee\
.	.	4dd\
2r	.	2ee\
.	4b\	.
2F\	4a/	2cc\
.	4g/	.
=17	=17	=17
1F	2f/	2dd\
.	2a/	1ff
1c	1g	.
.	.	2ee\
=18	=18	=18
2d\	1f	0ff
1f	.	.
.	2r	.
4e\	2f/	.
4d\	.	.
=19	=19	=19
2e\	2g/	0r
2d\	1b-	.
2G\	.	.
[2d\	4a/	.
.	4g/	.
=20	=20	=20
2d\]	2f/	1r
4c\	2g/	.
4B\	.	.
1A	1a	2r
.	.	2cc\
=21	=21	=21
2r	2d/	2dd\
2A\	1a	1ff
2D\	.	.
[2A\	4g/	4ee\
.	4f/	4dd\
=22	=22	=22
2A\]	2e/	2cc\
4G\	1d	2dd\
4F\	.	.
1E	.	1ee
.	2c#i/	.
=23	=23	=23
1D	2d/	2a/
.	1f	2dd\
2r	.	4cc\
.	.	4dd\
2E\	2g/	2b\
=24	=24	=24
4F\	2a/	2a/
4G\	.	.
4A\	4cc\	4ee\
4B\	4b\	4dd\
2A\	4cc\	4ee\
.	4a/	4cc\
2G\	2b\	2dd\
=25	=25	=25
1A	1a	2.cc\
.	.	4b\
2D\	4f/	4a/
.	4e/	4g/
2d\	4f/	[2a/
.	4d/	.
=26	=26	=26
2c\	2e/	2a/]
2d\	1d	4g/
.	.	4f/
1A	.	1e
.	2c#i/	.
=27	=27	=27
2r	1d	2d/
2.d\	.	1a
.	1r	.
4c\	.	.
4B\	.	4b\
4A\	.	4cc\
=28	=28	=28
2B\	0r	4dd\
.	.	4cc\
1A	.	4b\
.	.	4a/
.	.	1b
2G#i\	.	.
=29	=29	=29
2A\	2r	2a/
4r	1d	4b\
4G\	.	4cc\
2F\	.	4dd\
.	.	4ee\
2D\	4e/	2ff\
.	4f/	.
=30	=30	=30
2E\	4g/	2ee\
.	4f/	.
2F\	4e/	1dd
.	4d/	.
2G\	1e	.
2A\	.	2cc#i\
=31	=31	=31
2.B-i\	2r	0dd
.	2.d/	.
4A\	.	.
4G\	.	.
4F\	4e/	.
[2A\	4f/	.
.	4g/	.
=32	=32	=32
2A\]	2e/	0r
4G\	1d	.
4F\	.	.
1E	.	.
.	2c#i/	.
=33	=33	=33
1D	2d/	2r
.	2.f/	2.a/
1r	.	.
.	4e/	4b\
.	4d/	4cc\
.	4c/	4dd\
=34	=34	=34
0r	4d/	2b\
.	4c/	.
.	4B/	1a
.	4A/	.
.	1B	.
.	.	2g#i/
=35	=35	=35
2r	0A	0a
2.D\	.	.
4E\	.	.
4F\	.	.
4G\	.	.
=36	=36	=36
2E\	0r	2r
2D\	.	2.a/
1A	.	.
.	.	4b\
.	.	4cc\
.	.	4dd\
=37	=37	=37
2G\	2r	2b\
2F\	2.A/	2a/
2A\	.	1ee
.	4B/	.
2A\	4c/	.
.	4d/	.
=38	=38	=38
2G\	2B/	2r
1A	2A/	1cc
.	2e/	.
[2D\	[2f/	4dd\
.	.	4ee\
=39	=39	=39
4D\]	4f/]	2ff\
4E\	4e/	.
4F\	1d	2ff\
4G\	.	.
1E	.	1gg
.	2c#i/	.
=40	=40	=40
2D\	1d	2ff\
2A\	.	4ee\
.	.	4cc\
2G\	2b\	2dd\
2A\	4a/	4cc\
.	4f/	4a/
=41	=41	=41
2r	2g/	2b\
2D\	4f/	2a/
.	4d/	.
2C/	2e/	2r
2D\	2d/	2dd\
=42	=42	=42
2A\	2r	2cc\
1B-	4d/	1dd
.	4e/	.
.	4f/	.
.	4g/	.
4A\	[2a/	4cc\
4G\	.	4b\
=43	=43	=43
2F\	2a/]	4cc\
.	.	4b\
2G\	1g	4a/
.	.	4g/
1D	.	1a
.	2f#i/	.
=44	=44	=44
2r	2g/	2r
1d	1a	4a/
.	.	4b\
.	.	4cc\
.	.	4dd\
2c\	4g/	[2ee\
.	4f/	.
=45	=45	=45
2d\	4g/	4ee\]
.	4f/	4dd\
2B\	4e/	1dd
.	4d/	.
1A	1e	.
.	.	2cc#i\
=46	=46	=46
0Dl	0dl	0ddl
==	==	==
*-	*-	*-
!!!RDF**kern: l=long note in original notation
!!!RDF**kern: i=editorial accidental
!!!ENC:	Chris Gage 06-17-2013
!!!END:	2013/08/08/
!!!EED:	Jesse Rodin
!!!EEV:	2013/08/10/
!!!ONB:	Translated from MusicXML and edited on 2013/08/10/ by Craig Sapp
!!muse2ps: C^@{COM}^i2I150v85,85,150Q16
